X: 11079
T: ROADHOUSE REEL
C: Bob McQuillen 20 Dec'01
B: Bob's Note Book 11 #79
R: reel
Z: 2020 John Chambers <jc:trillian.mit.edu>
M: C
L: 1/8
K: G	# and Em
GE \
| DGEG BGBd | g2ge dBGE | DGEG Bded | gedB A2GA |
| BGBd egdg | bgag edge | d2Bd gedB | egdB G2  :|
K: Em
|: GA \
| BGED E2Bd | BGAG FDGA | BGED E2gf | edBA B2Bd |
| edBd BGBd | BGEG FDGA | BGBd edBG | DEFD E2  :|
%%begintext align
%% Frank Blade says that as far
%% back as he and Dina can remember, dancing at the Folklife Festival
%% has always been held in the Roadhouse (Flag Pavilion West); This year,
%% 2002, marks the year of its relocation, to a place where new happy
%% memories will be created. This tune is to celebrate the zillion happy
%% memories of the old Roadhouse, memories which this writer is so glad
%% he shares with so many very dear friends.
%%endtext

%%sep 1 1 500

%%sep 1 1 500

